src/pos-icons/google-keep.svg

<svg height="24" viewBox="0 0 24 24" width="24" xmlns="http://www.w3.org/2000/svg"><path d="m4 2h16c1.11 0 2 .9 2 2v13.33l-4.67 4.67h-13.33c-1.1 0-2-.89-2-2v-16c0-1.1.9-2 2-2m13 15v3.25l3.25-3.25zm-7 2h4v-1h1v-5c1.21-.91 2-2.36 2-4 0-2.76-2.24-5-5-5s-5 2.24-5 5c0 1.64.79 3.09 2 4v5h1zm4-2h-4v-2h4zm-2-12c2.21 0 4 1.79 4 4 0 1.5-.8 2.77-2 3.46v1.54h-4v-1.54c-1.2-.69-2-1.96-2-3.46 0-2.21 1.79-4 4-4z"/></svg>

<?xml version="1.0" encoding="UTF-8"?><!DOCTYPE svg PUBLIC "-//W3C//DTD SVG 1.1//EN" "http://www.w3.org/Graphics/SVG/1.1/DTD/svg11.dtd"><svg xmlns="http://www.w3.org/2000/svg" xmlns:xlink="http://www.w3.org/1999/xlink" version="1.1" id="mdi-google-keep" width="24" height="24" viewBox="0 0 24 24"><path d="M4 2H20C21.11 2 22 2.9 22 4V17.33L17.33 22H4C2.9 22 2 21.11 2 20V4C2 2.9 2.9 2 4 2M17 17V20.25L20.25 17H17M10 19H14V18H15V13C16.21 12.09 17 10.64 17 9C17 6.24 14.76 4 12 4S7 6.24 7 9C7 10.64 7.79 12.09 9 13V18H10V19M14 17H10V15H14V17M12 5C14.21 5 16 6.79 16 9C16 10.5 15.2 11.77 14 12.46V14H10V12.46C8.8 11.77 8 10.5 8 9C8 6.79 9.79 5 12 5Z" /></svg>
